X:1
T:Dennis (Thalben-Ball), 10.10
T:Dennis (Thalben-Ball), 10.10
T:George Thomas Thalben-Ball (1896-1987)
T:Public Domain Courtesy of the Cyber Hymnal™
C:George Thomas Thalben-Ball (1896-1987)
Z:Public Domain
Z:Courtesy of the Cyber Hymnal™
%%score ( 1 2 ) ( 3 4 )
L:1/8
Q:1/4=110
M:4/4
K:Eb
V:1 treble 
V:2 treble 
V:3 bass 
V:4 bass 
V:1
 [EG]2 | [CE]2 [DF]2 [EG]2 [FB]2 | c3 E4 [FB]2 | [EG]4 (F2 E2) | [DG]6 [EG]2 | %5
 [EA]2 [GB]2 [Ad]2 [Ac]2 | e6 [DG]2 | [FA]4 [FB]4 | [GB]6 |] %9
V:2
 x2 | x8 | F2 x7 | x4 C4 | x8 | x8 | (A2 G4) x2 | x8 | x6 |] %9
V:3
 [E,B,]2 | [A,C]2 [F,A,]2 [E,B,]2 [D,B,]2 | [C,G,]6 [D,B,]2 x | [E,B,]4 [A,C]4 | %4
 (C2 =B,4) [E,_B,]2 | [CE]2 [B,D]2 [F,C]2 [F,D]2 | [C,E]6 [G,B,]2 | [F,C]4 [B,,D]4 | [E,B,]6 |] %9
V:4
 x2 | x8 | x9 | x8 | G,6 x2 | x8 | x8 | x8 | x6 |] %9

